X:1
T: Dr. Marshall
C:Alexander Walker
R:Reel
Q: 232
K:D
M:4/4
L:1/8
|:AF|D2 FD AD FD|dc dc BA GF|E2 GE BE GE|Bg fe dc BA|
D2 FD AD FD|dc dc BA GF|EG FA GB Ag|f2 d2 d2:|
|:g2|fd Ad Fd Ad|fd AF G2 FE|GB GE FA FD|E2 A,2 A,2 g2|
fa fd eg ec|de dB AB AF|1GB AG FD EC|D2 D2 D2:|2GB Ag fd ec|d2 d2 d2||
